X:1
T:Maid on the Green -- Jig
R:jig
B:Ryan's Mammoth Collection
N: 111 624
Z: Contributed by Ray Davies,  ray:davies99.freeserve.co.uk
M:6/8
L:1/8
K:G
d|\
gfg e2d | Bee dBA | BGG dBG | FAA A2f |
gfg e2d | Bee dBG | Bdd dBG | BAG G2:|
|:g|\
gfg afd | gfg a2a | bgg aff | gfa g2a |
bgg aff | gfg e2d | Bee dBG | BGG GBd :|
